img/sk-ico.svg

<svg id="Capa_1" xmlns="http://www.w3.org/2000/svg" xmlns:xlink="http://www.w3.org/1999/xlink" viewBox="0 0 80 80"><style>.st0{clip-path:url(#SVGID_2_)}.st1{clip-path:url(#SVGID_4_)}</style><defs><path id="SVGID_1_" d="M46.5 58.6l13.1-21.3 5.5-4.3-18.6 25.6zM24.9 38.5h30.2L40 65.3 24.9 38.5zm-10.1-5.6l5.5 4.3 13.1 21.3-18.6-25.6zm2.3-14.3l9.6 4.6-6.8 9.8-8.6-6.6 5.8-7.8zm32.2-5.8l8.8 3.8-8.8 4.1H30.7l-8.8-4.1 8.7-3.8h18.7zM55.9 35H24.1l6.5-11.5h18.7L55.9 35zm12.7-8.6L60 33l-6.8-9.9 9.6-4.6 5.8 7.9zm-5.3-10.9l-11.4-4.9H28.1l-11.4 4.9L7.5 26 40 69.4 72.5 26l-9.2-10.5z"/></defs><use xlink:href="#SVGID_1_" overflow="visible" fill-rule="evenodd" clip-rule="evenodd"/><clipPath id="SVGID_2_"><use xlink:href="#SVGID_1_" overflow="visible"/></clipPath><g class="st0"><defs><path id="SVGID_3_" d="M-14.9-13.8H95V96.1H-14.9z"/></defs><use xlink:href="#SVGID_3_" overflow="visible"/><clipPath id="SVGID_4_"><use xlink:href="#SVGID_3_" overflow="visible"/></clipPath><path class="st1" d="M7 10.1h66.1v59.8H7z"/></g></svg>

<?xml version="1.0" encoding="utf-8"?>
<!-- Generator: Adobe Illustrator 19.1.0, SVG Export Plug-In . SVG Version: 6.00 Build 0)  -->
<svg version="1.1" id="Capa_1" xmlns="http://www.w3.org/2000/svg" xmlns:xlink="http://www.w3.org/1999/xlink" x="0px" y="0px"
	 viewBox="0 0 80 80" style="enable-background:new 0 0 80 80;" xml:space="preserve">
<style type="text/css">
	.st0{clip-path:url(#SVGID_2_);}
	.st1{clip-path:url(#SVGID_4_);}
</style>
<g>
	<defs>
		<path id="SVGID_1_" d="M46.5,58.6l13.1-21.3l5.5-4.3L46.5,58.6z M24.9,38.5h30.2L40,65.3L24.9,38.5z M14.8,32.9l5.5,4.3l13.1,21.3
			L14.8,32.9z M17.1,18.6l9.6,4.6L19.9,33l-8.6-6.6L17.1,18.6z M49.3,12.8l8.8,3.8l-8.8,4.1H30.7l-8.8-4.1l8.7-3.8L49.3,12.8z
			 M55.9,35H24.1l6.5-11.5h18.7L55.9,35z M68.6,26.4L60,33l-6.8-9.9l9.6-4.6L68.6,26.4z M63.3,15.5l-11.4-4.9H28.1l-11.4,4.9L7.5,26
			L40,69.4L72.5,26L63.3,15.5z"/>
	</defs>
	<use xlink:href="#SVGID_1_"  style="overflow:visible;fill-rule:evenodd;clip-rule:evenodd;"/>
	<clipPath id="SVGID_2_">
		<use xlink:href="#SVGID_1_"  style="overflow:visible;"/>
	</clipPath>
	<g class="st0">
		<defs>
			<rect id="SVGID_3_" x="-14.9" y="-13.8" width="109.9" height="109.9"/>
		</defs>
		<use xlink:href="#SVGID_3_"  style="overflow:visible;"/>
		<clipPath id="SVGID_4_">
			<use xlink:href="#SVGID_3_"  style="overflow:visible;"/>
		</clipPath>
		<rect x="7" y="10.1" class="st1" width="66.1" height="59.8"/>
	</g>
</g>
</svg>
